X:1
T:James Gibb editions
T:A shepherd in a shade - Dowland
T:#
%%score [ 1 2 3 4 ]
L:1/8
Q:1/4=121
M:4/4
K:C
V:1 treble nm="Soprano" snm="S"
V:2 treble nm="Alto" snm="A"
V:3 treble-8 nm="Tenor" snm="T"
V:4 bass nm="Bass" snm="B"
V:1
"^A shepherd in a shade""^John Dowland\n(1563-1626)" G4 G2 G2 | G4 G4 | G4 A4 | B6 c2 | A4 z2 A2 | %5
w: A shep- herd|in a|shade, his|plain- ing|made, Of|
w: Since Love and|For- tune|will, I|hon- our|still, your|
w: My heart where|have you|laid, O|cru- el|maid To|
 d6 c2 |[M:4/4] B4 d4 | A8 | D4 D2 E2 | ^F4 G4 | A4 B4 | c4 B4 | A4 z2 B2 | A2 G2 G4- | %14
w: love and|lov- ers|wrong,|Un- to the|fair- est|lass that|trod on|grass, and|thus be- gan|
w: fair and|love- ly|eye,|What con- quest|will it|be, Sweet|nymph for|thee, If|I for sor\-|
w: kill when|you might|save,|Why have you|cast it|forth as|no- thing|worth, With-|out a tomb|
 G2 (^FE F4) | G8 ||[K:F]"^Refrain 1 after each verse; refrain 2 at end." B2 B4 B2 | B4 d4 | %18
w: * his * *|song,|~~Re- store, re-|store my|
w: * row * *|die.|~~O let it|be en-|
w: * or * *|grave.|||
 c4 B4 | A6 F2 | A6 G2 | F4 (G2 F2) | E2 (D2 E4) | D8 | D4 E4 | F4 E2 G2- | G2 F2 B4 | A4 G4 | %28
w: heart a-|gain, Which|love by|thy sweet *|looks hath *|slain,|lest that|en- forced by|* your dis-|dain, I|
w: tombed and|lie, In|your sweet|mind and *|me- mo\- *|ry,|lest I|re- sound on|* e- v'ry|war- bling|
w: ||||||||||
 ^F4 d4- | d2 c2 B4 | A4 d4- | d2 c2 B4 | A4 z2 D2 | F4 B4 | A6 A2 | G8 |] %36
w: sing Fie,|* fie on|love, Fie,|* fie on|love, it|is a|fool- ish|thing.|
w: string, Fie,|* fie on|love, Fie,||||||
w: ||||||||
V:2
 D4 D2 C2 | B,4 E4 | D4 D4 | D4 G4 | ^F3 E F2 F2 | G4 A4 |[M:4/4] D6 G2 | ^F2 E2 D2 E2 | ^F4 G4 | %9
w: A shep- herd|in a|shade, his|plain- ing|made, Of love and|lov- ers|wrong, Un-|to the fair- est|lass, un-|
w: Since Love and|For- tune|will, I|hon- our|still, your fair and|love- ly|eye, What|con- quest will it|be, what|
w: My heart where|have you|laid, O|cru- el|maid To kill when|you might|save, Why|have you cast it|forth, why|
 A4 D4 | D6 G2 | E2 ^F2 G2 E2 | ^F4 G4 | E4 (B,2 C2) | D6 C2 | B,8 ||[K:F] D2 D4 _E2 | F6 D2 | %18
w: to the|fair- est|lass that trod on|grass, and|thus be\- *|gan his|song,|Re- store, re|store my|
w: con- quest|will it|be Sweet nymph for|thee, If|I for *|sor- row|die.|O let it|be en-|
w: have you|cast it|forth as no- thing|worth, With-|out a *|tomb or|grave.|||
 A4 G4 | ^F6 D2 | F6 E2 | D4 (E2 D2) | ^C2 (D4 !courtesy!^C2) | D8 | z8 | z8 | z4 D2 G2 | %27
w: heart a-|gain, Which|love by|thy sweet *|looks hath *|slain,|||by your|
w: tombed and|lie, In|your sweet|mind and *|me- mo\- *|ry,|||lest I|
w: |||||||||
 F2 D4 C2 | D8 | D6 E2 | ^F4 G4 | D6 E2 | ^F4 G4 | A4 D4 | D2 _E2 D3 C | =B,8 |] %36
w: dis- dam, I|sing|Fie, fie|on love,|Fie, fie|on love,|fie, it|is a fool- ish|thing.|
w: re- sound, re-|sound,|Fie, fie|on love,||||||
w: |||||||||
V:3
 (G3 A) B2 c2 | d4 c4 | B4 A4 | G6 G2 | d3 c B2 A2 | G4 ^F4 |[M:4/4][K:treble-8] G6 d2 | %7
w: A * shep- herd|in a|shade, his|plain- ing|made, Of love and|lov- ers|wrong, Un-|
w: Since * Love and|For- tune|will, I|hon- our|still, your fair and|love- ly|eye, What|
w: My * heart where|have you|laid, O|cru- el|maid To kill when|you might|save, Why|
 d2 e2 ^f2 g2 | a2 A2 B4 | A2 (d3 c) B2 | A2 (d3 c B2) | A4 G4 | d6 d2 | c2 (B4 AG) | A6 A2 | G8 || %16
w: to the fair- est|lass, un- to|the fair\- * est|lass that * *|trod on|grass, and|thus be\- * *|gan his|song,|
w: con- quest will it|be, what con-|quest will * it|be Sweet * *|nymph for|thee, if|I for * *|sor- row|die.|
w: have you cast it|forth, why have|you cast * it|forth as no- thing,|no- thing|worth, With-|out a * *|tomb or|grave.|
[K:F][K:treble-8] F2 f4 _e2 | d4 f4 | f4 d4 | d6 A2 | d4 A4 | A4 B4 | z2 A2 A2 E2 | ^F8 | %24
w: Re- store, re-|store my|heart a-|gain, Which|love by|thy sweet,|sweet looks hath|slain,|
w: O let it|be en-|tombed and|lie, In|your sweet|mind and,|and me- mo-|ry,|
w: ||||||||
 ^F2 G4 A2- | A2 B2 G2 c2 | B2 (A3 G) G2 | A2 F2 B2 (G2 | A4) B4 | A4 d4- | d2 c2 B4 | A4 d4- | %32
w: lest that en\-|* forced, en- forced|by your * dis-|dain, by your dis-|dain, I|sing Fie,|* fie on|love, Fie,|
w: lest I re\-|* sound, re- sound|on e\- * v'ry|war- bling string, war\-|* bling|string, Fie,|* fie on||
w: ||||||||
 d2 A2 B2 G2 | c4 z2 G2 | ^F2 G2 G2 !courtesy!^F2 | G8 |] %36
w: * fie, fie on|love, it|is a fool- ish|thing.|
w: ||||
w: ||||
V:4
 G,,4 G,,2 A,,2 | (B,,2 G,,2) C,4 | G,,4 ^F,,4 | G,,4 E,4 | D,6 C,2 | B,,4 A,,4 | %6
w: A shep- herd|in * a|shade, his|plain- ing|made, Of|love and|
w: Since Love and|For\- * tune|will, I|hon- our|still, your|fair and|
w: My heart where|have * you|laid, O|cru- el|maid To|kill when|
[M:4/4] (G,,2 A,,2 B,,2) G,,2 | D,8 | D,8 | D,,6 E,,2 | ^F,,2 F,,2 G,,4 | A,,4 B,,2 C,2 | %12
w: lov\- * * ers|wrong,|Un-|to the|fair- est lass|that trod on|
w: love\- * * ly|eye,|What|con- quest|will it be,|Sweet nymph for|
w: you * * might|save,|Why|have you|cast it forth|as no- thing|
 D,4 B,,4 | (C,3 D,) E,4 | D,4 D,4 | G,,8 ||[K:F] B,,2 B,,4 C,2 | D,4 B,,4 | F,4 G,4 | D,6 D,2 | %20
w: grass, and|thus * be-|gan his|song,|Re- store, re-|~store my|heart a-|~gain, Which|
w: thee, If|I * for|sor- row|die.|O let it|be en-|tombed and|lie, In|
w: worth, With-|out * a|tomb or|grave.|||||
 D,4 ^C,4 | D,4 G,,4 | A,,6 A,,2 | D,8 | B,,4 C,2 C,2 | D,4 C,4 | D,2 D,2 G,,4 | D,4 _E,4 | %28
w: love by|thy sweet|looks hath|slain,|lest that en-|forced by|your dis- dain,|I sing|
w: your sweet|mind and|me- mo-|ry,|lest I re-|sound on|e- v'ry war-|bling string,|
w: ||||||||
 D,6 E,2 | ^F,4 G,4 | D,6 E,2 | ^F,4 G,4 | D,4 B,,4 | A,,4 G,,4 | D,2 (C,2 D,4) | G,,8 |] %36
w: Fie, fie|on love,|Fie, fie|on love,|fie it|is a|fool- ish *|thing.|
w: Fie, fie|on love,|Fie, fie||||||
w: ||||||||

